X: 8
T: Off She Goes
R: jig
M: 6/8
L: 1/8
K: Dmaj
|: A |F2 A {F/}G2 B | ABc {c/}d3 | F2 A {F/}G2 B | AFD TE3 |
F2 A {F/}G2 B | ABc {c/}d2 e | Tf2 d {f/}g2 f | edc {c/}d2 :|
|: g |(f/g/a)f {c/}d2 f | (g/a/b)g e2 g | (f/g/a)f {c/}d2 f | ecA A2 g |
(f/g/a)f {c/}d2 f | (g/a/b)g e2 g | f2 d {f/}g2 f | edc {c/}d2 :|


Tune 1133	Setting 23310

